X:1
T: Colonel Crawford's Reel
T: Dalkeith's Strathspey
R:Strathspey
Q: 128
K:F
M:4/4
L:1/16
|:A2|F3C A,3C FFF2 A3F|GGG2 B3A GD3 D3E|F3C A,3C FFF2 A3c|d3f c3f AF3 F2A2|
F3C A,3C FFF2 A3F|GGG2 B3A GD3 D3E|F3C A,3C FFF2 A3c|d3f c3f AF3 F2c2|
f3g a3g f3e f3c|ddd2 b3a gd3 d3e|f3g a3g f3c d3B|A3c G3B AF3 F3c|
f3g a3g f3e f3c|ddd2 b3a gd3 d3e|f3c a3e f3c d3B|A3c G3B AF3 F2:|
